X: 33879
T: Red Haired Girl Of Tulloch, The
R: strathspey
M: 4/4
K: Bdorian
B<Bd>e f>ef<a|A>Ac>B A>ce>c|B>Bd>e f>ef>g|a>fe>c B<B f2:|
d>fB>f d<fB>f|c<eA>e c<eA>e|d<fB>f d<fB>f|a>fe>c B<B e2|
d>fB>f d>fB>f|c>eA>e c>eA>e|B<Bd>e f>ef>g|a>fe>c B<B f2||

